packages/foundations/assets/icons/functional/images/notification/question_mark_circle.svg

<svg xmlns="http://www.w3.org/2000/svg" width="32" height="32" fill="none"><path fill="#1A1C1F" fill-rule="evenodd" d="m14.747 2.058-.8.108c-1.6.213-3.385.827-4.854 1.67-5.064 2.906-7.788 8.508-6.933 14.259.564 3.804 2.747 7.257 6 9.493 3.188 2.191 7.341 2.943 11.126 2.014a14 14 0 0 0 8.367-5.869 13.96 13.96 0 0 0 2.244-6.053c.113-.904.113-2.449-.001-3.36a14 14 0 0 0-2.195-5.985c-2.223-3.353-5.651-5.554-9.621-6.178-.532-.083-2.927-.154-3.333-.099m3.013 2.077c1.261.191 2.36.538 3.547 1.12a12.05 12.05 0 0 1 5.805 6.238c1.325 3.262 1.137 7.013-.508 10.107-1.178 2.214-3.091 4.074-5.297 5.149-1.192.58-2.295.929-3.574 1.13-.813.127-2.653.127-3.466 0-3.941-.619-7.289-3.06-9.012-6.572a11.8 11.8 0 0 1-1.13-3.6c-.13-.846-.13-2.568 0-3.414.407-2.652 1.576-4.956 3.456-6.812.975-.962 1.932-1.647 3.112-2.226 1.419-.696 2.778-1.073 4.4-1.222.476-.044 2.119.019 2.667.102m-2.907 4.476c-1.084.169-1.747.5-2.005 1-.319.62.213 1.371.974 1.374.139.001.512-.081.842-.184 1.262-.396 2.133-.399 2.783-.011.702.419.873 1.368.417 2.31-.202.419-.669.863-1.523 1.447-1.317.9-1.834 1.709-1.832 2.866 0 .576.176.889.598 1.065a.97.97 0 0 0 .826-.031c.324-.157.488-.425.555-.905.101-.727.298-.974 1.379-1.729.875-.61 1.164-.862 1.49-1.294.501-.668.75-1.482.75-2.462 0-1.688-1.03-2.991-2.7-3.419-.331-.084-.577-.104-1.269-.099-.472.003-1.05.035-1.285.072m.036 12.061c-.583.29-.864.954-.678 1.595.161.552.741.986 1.317.986.532 0 1.079-.385 1.273-.897.125-.328.132-.544.03-.883a1.29 1.29 0 0 0-.634-.78c-.381-.218-.896-.226-1.308-.021"/></svg>

<svg width="32" height="32" viewBox="0 0 32 32" fill="none" xmlns="http://www.w3.org/2000/svg"><path d="M14.747 2.058 C 14.659 2.070,14.299 2.119,13.947 2.166 C 12.347 2.379,10.562 2.993,9.093 3.836 C 4.029 6.742,1.305 12.344,2.160 18.095 C 2.724 21.899,4.907 25.352,8.160 27.588 C 11.348 29.779,15.501 30.531,19.286 29.602 C 22.731 28.757,25.677 26.691,27.653 23.733 C 28.862 21.924,29.621 19.874,29.897 17.680 C 30.010 16.776,30.010 15.231,29.896 14.320 C 29.628 12.168,28.868 10.096,27.701 8.335 C 25.478 4.982,22.050 2.781,18.080 2.157 C 17.548 2.074,15.153 2.003,14.747 2.058 M17.760 4.135 C 19.021 4.326,20.120 4.673,21.307 5.255 C 23.916 6.535,26.012 8.788,27.112 11.493 C 28.437 14.755,28.249 18.506,26.604 21.600 C 25.426 23.814,23.513 25.674,21.307 26.749 C 20.115 27.329,19.012 27.678,17.733 27.879 C 16.920 28.006,15.080 28.006,14.267 27.879 C 10.326 27.260,6.978 24.819,5.255 21.307 C 4.666 20.106,4.328 19.030,4.125 17.707 C 3.995 16.861,3.995 15.139,4.125 14.293 C 4.532 11.641,5.701 9.337,7.581 7.481 C 8.556 6.519,9.513 5.834,10.693 5.255 C 12.112 4.559,13.471 4.182,15.093 4.033 C 15.569 3.989,17.212 4.052,17.760 4.135 M14.853 8.611 C 13.769 8.780,13.106 9.111,12.848 9.611 C 12.529 10.231,13.061 10.982,13.822 10.985 C 13.961 10.986,14.334 10.904,14.664 10.801 C 15.926 10.405,16.797 10.402,17.447 10.790 C 18.149 11.209,18.320 12.158,17.864 13.100 C 17.662 13.519,17.195 13.963,16.341 14.547 C 15.024 15.447,14.507 16.256,14.509 17.413 C 14.509 17.989,14.685 18.302,15.107 18.478 C 15.378 18.591,15.657 18.581,15.933 18.447 C 16.257 18.290,16.421 18.022,16.488 17.542 C 16.589 16.815,16.786 16.568,17.867 15.813 C 18.742 15.203,19.031 14.951,19.357 14.519 C 19.858 13.851,20.107 13.037,20.107 12.057 C 20.107 10.369,19.077 9.066,17.407 8.638 C 17.076 8.554,16.830 8.534,16.138 8.539 C 15.666 8.542,15.088 8.574,14.853 8.611 M14.889 20.672 C 14.306 20.962,14.025 21.626,14.211 22.267 C 14.372 22.819,14.952 23.253,15.528 23.253 C 16.060 23.253,16.607 22.868,16.801 22.356 C 16.926 22.028,16.933 21.812,16.831 21.473 C 16.728 21.130,16.526 20.882,16.197 20.693 C 15.816 20.475,15.301 20.467,14.889 20.672 " fill="#1A1C1F" stroke="none" fill-rule="evenodd"></path></svg>
